!!!OTL: Der Spielmannssohn 'Wach auf, wach auf, mein Schatz allein,
!!!ARE: Europa, Mitteleuropa, Deutschland (BRD), Westfalen
!!!YOR: 3, S. 178
!!    1842 aufgezeichnet (vor)
!!!SCT: Q1062D
!!!YEM: Copyright 1995, estate of Helmut Schaffrath.
**kern
*ICvox
*Ivox
*M3/4
*k[b-]
*F:
{8cc
=1
8.c
16f
4f
8e
8f
=2
8g
16g
16a
4f
8.r}
{16f
=3
8.f
16cc
8.cc
16b-
8a
8f
=4
8g
16f
16a
4g
8r}
{8f
=5
12g
12a
12b-
4cc
8c
8c
=6
12f
12e
12f
8a
8g
8r}
{8c
=7
8b-
8a
8g
8a
4f
=8
8c
8c
4f
8r}
==
!!!AGN: Tage - Lied
!! Melodievergleich zu Q0062, anderes Lied "Der treue Knabe" .
!!!ONB: ESAC (Essen Associative Code) Database: BALLADE
!!!AMT: simple triple
!!!AIN: vox
!!!EED: Helmut Schaffrath
!!!EEV: 1.0
*-
